X:7132
T:the New-Rigged Ship
O:england
M:6/8
A:North-West
R:Jig
K:D
A|\
d2d def| d2d def| ecA Acd| ecA A2A|\
d2d def| d2d def| egf edc| d3 d2:|
f/g/|\
a2f a2f| d3 d3| b2g b2g| e3 e3| \
a2f a2f| d3 f3| egf edc| d3 d2 f/g/||
agf agf| ded dfa| bag bag| efe efg| \
agf agf| def fed| egf edc| d3 d2|]


